X: 1
T: the Earl of Seaforth's Reel
R: reel
B: RSCDS 12-__(II)
Z: 1997 by John Chambers <jc:trillian.mit.edu>
M: C|
L: 1/8
K: D
|: c \
| "D"d2Ad "Bm"FDDF | "Em"EB,ED "A7"CA,A,A \
| "D"FDFA "G"dGBd | "A7"ceAc "D"d2d :|
|| g \
| "D"f2df "Em"geeg | "E7"fded "A7"cAAg \
| "D"f2df "Em"geeg | "A7"fdec "D"d2 dg |
| "D"f2df "Em"geeg | "E7"fded "A7"cAAg \
| "Bm"fedf "Em"gfeg | "A7"faef "D"d2d |]
